; generated by PrusaSlicer 2.4.2+win64 on 2023-04-30 at 18:55:20 UTC

; 

; external perimeters extrusion width = 0.45mm
; perimeters extrusion width = 0.45mm
; infill extrusion width = 0.45mm
; solid infill extrusion width = 0.45mm
; top infill extrusion width = 0.40mm
; first layer extrusion width = 0.42mm

M107
M190 S70 ; set bed temperature and wait for it to be reached
M104 S190 ; set temperature
;TYPE:Custom
G28 ; home all axes
G1 Z5 F5000 ; lift nozzle
M109 S190 ; set temperature and wait for it to be reached
G21 ; set units to millimeters
G90 ; use absolute coordinates
M82 ; use absolute distances for extrusion
G92 E0
; Filament gcode
M107
;LAYER_CHANGE
;Z:0.35
;HEIGHT:0.35
G1 Z.35 F7800
G1 E-2 F2400
G92 E0
G1 X41.843 Y56.455 F7800
G1 E2 F2400
;TYPE:Skirt/Brim
;WIDTH:0.42
G1 F1800
G1 X43.382 Y55.558 E2.09833
G1 X58.362 Y48.227 E3.01903
G1 X59.967 Y47.627 E3.11363
G1 X61.135 Y47.382 E3.17948
G1 X62.202 Y47.285 E3.23865
G1 X76.773 Y47.282 E4.04301
G1 X78.332 Y47.42 E4.12943
G1 X79.762 Y47.732 E4.21022
G1 X80.561 Y47.992 E4.25659
G1 X82.448 Y48.88 E4.37173
G1 X83.662 Y49.697 E4.45251
G1 X84.764 Y50.66 E4.5333
G1 X85.339 Y51.272 E4.57968
G1 X86.221 Y52.419 E4.65953
G1 X86.97 Y53.695 E4.74124
G1 X87.738 Y55.635 E4.85638
G1 X88.063 Y57.061 E4.93716
G1 X88.169 Y57.895 E4.98354
G1 X88.208 Y59.341 E5.06339
G1 X88.063 Y60.814 E5.14511
G1 X87.55 Y62.818 E5.2593
G1 X87.242 Y63.599 E5.30568
G1 X86.573 Y64.901 E5.38646
G1 X85.747 Y66.109 E5.46725
G1 X84.764 Y67.215 E5.54897
G1 X83.157 Y68.545 E5.6641
G1 X81.618 Y69.442 E5.76244
G1 X66.638 Y76.773 E6.68313
G1 X65.033 Y77.373 E6.77773
G1 X63.515 Y77.663 E6.86303
G1 X62.59 Y77.718 E6.91421
G1 X48.439 Y77.721 E7.6954
G1 X47.287 Y77.658 E7.75908
G1 X45.843 Y77.423 E7.83986
G1 X43.859 Y76.778 E7.95499
G1 X43.099 Y76.421 E8.00137
G1 X41.843 Y75.67 E8.08216
G1 X40.236 Y74.34 E8.19729
G1 X39.263 Y73.247 E8.27808
G1 X38.769 Y72.568 E8.32446
G1 X37.765 Y70.74 E8.43959
G1 X37.455 Y69.959 E8.48597
G1 X37.054 Y68.552 E8.56675
G1 X36.792 Y66.483 E8.68189
G1 X36.831 Y65.02 E8.76267
G1 X36.937 Y64.186 E8.80905
G1 X37.258 Y62.776 E8.8889
G1 X37.758 Y61.401 E8.96968
G1 X38.76 Y59.572 E9.08481
G1 X39.655 Y58.404 E9.166
G1 X40.236 Y57.785 E9.21291
G1 X41.797 Y56.493 E9.32473
G1 X42.016 Y56.759 F7800
G1 F1800
G1 X43.533 Y55.867 E9.42186
G1 X58.514 Y48.537 E10.34255
G1 X60.053 Y47.961 E10.43328
G1 X61.178 Y47.724 E10.49674
G1 X62.213 Y47.63 E10.55412
G1 X76.762 Y47.627 E11.35729
G1 X78.289 Y47.762 E11.44191
G1 X79.676 Y48.066 E11.52031
G1 X80.434 Y48.313 E11.56429
G1 X81.735 Y48.882 E11.64269
G1 X83.459 Y49.976 E11.75543
G1 X84.528 Y50.911 E11.83383
G1 X85.93 Y52.604 E11.95517
G1 X86.658 Y53.842 E12.03447
G1 X87.409 Y55.741 E12.14721
G1 X87.725 Y57.126 E12.22561
G1 X87.864 Y59.319 E12.34695
G1 X87.725 Y60.749 E12.42625
G1 X87.222 Y62.712 E12.53808
G1 X86.93 Y63.453 E12.58207
G1 X86.282 Y64.717 E12.66046
G1 X85.481 Y65.889 E12.73886
G1 X84.528 Y66.964 E12.81815
G1 X82.954 Y68.266 E12.9309
G1 X81.467 Y69.133 E13.02594
G1 X66.486 Y76.463 E13.94663
G1 X64.947 Y77.039 E14.03736
G1 X63.472 Y77.321 E14.12027
G1 X48.439 Y77.376 E14.95017
G1 X47.33 Y77.316 E15.01145
G1 X45.929 Y77.089 E15.08984
G1 X43.986 Y76.458 E15.20259
G1 X43.265 Y76.118 E15.24657
G1 X42.046 Y75.391 E15.32497
G1 X40.472 Y74.089 E15.43771
G1 X39.529 Y73.027 E15.51611
G1 X39.061 Y72.383 E15.5601
G1 X38.077 Y70.593 E15.67284
G1 X37.783 Y69.852 E15.71683
G1 X37.392 Y68.487 E15.79522
G1 X37.136 Y66.461 E15.90797
G1 X37.176 Y65.041 E15.98636
G1 X37.275 Y64.251 E16.03035
G1 X37.586 Y62.882 E16.10783
G1 X38.07 Y61.547 E16.18622
G1 X39.052 Y59.756 E16.29896
G1 X39.921 Y58.624 E16.37776
G1 X40.472 Y58.036 E16.42225
G1 X41.97 Y56.797 E16.52957
G1 E14.52957 F2400
G92 E0
G1 X60.856 Y69.466 F7800
G1 E2 F2400
;TYPE:Perimeter
G1 F1800
G1 X60.947 Y68.023 E2.07987
G1 X60.984 Y67.829 E2.09072
G1 X61.045 Y67.643 E2.10157
G1 X61.234 Y67.299 E2.12323
G1 X61.502 Y67.013 E2.1449
G1 X61.833 Y66.802 E2.16656
G1 X62.207 Y66.681 E2.18822
G1 X62.402 Y66.656 E2.19907
G1 X62.793 Y66.681 E2.22073
G1 X62.984 Y66.73 E2.23158
G1 X63.339 Y66.897 E2.25325
G1 X63.498 Y67.013 E2.2641
G1 X63.766 Y67.299 E2.28576
G1 X63.955 Y67.642 E2.30742
G1 X64.053 Y68.023 E2.32908
G1 X64.053 Y68.415 E2.35074
G1 X63.955 Y68.796 E2.37245
G1 X63.766 Y69.139 E2.39407
G1 X63.497 Y69.425 E2.41578
G1 X63.167 Y69.635 E2.43739
G1 X62.805 Y69.753 E2.4584
G1 X62.522 Y69.784 E2.47412
G1 X48.457 Y69.787 E3.25055
G1 X48.223 Y69.779 E3.26346
G1 X47.74 Y69.718 E3.29034
G1 X47.287 Y69.602 E3.31614
G1 X46.853 Y69.43 E3.34194
G1 X46.443 Y69.205 E3.36774
G1 X46.065 Y68.93 E3.39354
G1 X45.725 Y68.61 E3.41935
G1 X45.427 Y68.25 E3.44515
G1 X45.176 Y67.855 E3.47095
G1 X44.977 Y67.433 E3.49675
G1 X44.833 Y66.988 E3.52255
G1 X44.745 Y66.529 E3.54835
G1 X44.716 Y66.062 E3.57415
G1 X44.745 Y65.596 E3.59995
G1 X44.833 Y65.137 E3.62575
G1 X44.975 Y64.699 E3.6512
G1 X45.177 Y64.269 E3.6774
G1 X45.427 Y63.875 E3.70315
G1 X45.725 Y63.515 E3.72895
G1 X46.065 Y63.195 E3.75475
G1 X46.443 Y62.92 E3.78055
G1 X46.853 Y62.695 E3.80635
G1 X47.287 Y62.523 E3.83215
G1 X47.74 Y62.407 E3.85795
G1 X48.223 Y62.346 E3.88484
G1 X48.457 Y62.338 E3.89775
G1 X76.621 Y62.338 E5.45254
G1 X77.181 Y62.285 E5.48359
G1 X77.614 Y62.174 E5.50827
G1 X78.012 Y62.017 E5.53186
G1 X78.386 Y61.811 E5.55546
G1 X78.732 Y61.56 E5.57905
G1 X79.043 Y61.267 E5.60265
G1 X79.316 Y60.938 E5.62623
G1 X79.545 Y60.577 E5.64983
G1 X79.727 Y60.19 E5.67342
G1 X79.859 Y59.784 E5.69702
G1 X79.939 Y59.364 E5.72061
G1 X79.966 Y58.938 E5.7442
G1 X79.939 Y58.511 E5.7678
G1 X79.859 Y58.091 E5.79139
G1 X79.727 Y57.685 E5.81499
G1 X79.545 Y57.298 E5.83858
G1 X79.316 Y56.937 E5.86218
G1 X79.044 Y56.608 E5.88577
G1 X78.732 Y56.315 E5.90937
G1 X78.386 Y56.064 E5.93297
G1 X78.012 Y55.858 E5.95656
G1 X77.614 Y55.701 E5.98016
G1 X77.181 Y55.59 E6.00484
G1 X76.621 Y55.537 E6.03588
G1 X64.144 Y55.534 E6.72469
G1 X64.053 Y56.977 E6.80456
G1 X64.016 Y57.171 E6.81541
G1 X63.872 Y57.535 E6.83708
G1 X63.766 Y57.701 E6.84793
G1 X63.498 Y57.987 E6.86959
G1 X63.167 Y58.198 E6.89125
G1 X62.793 Y58.319 E6.91291
G1 X62.402 Y58.344 E6.93457
G1 X62.016 Y58.27 E6.95623
G1 X61.833 Y58.198 E6.96709
G1 X61.502 Y57.987 E6.98875
G1 X61.359 Y57.853 E6.9996
G1 X61.128 Y57.535 E7.02126
G1 X60.984 Y57.171 E7.04292
G1 X60.947 Y56.977 E7.05378
G1 X60.947 Y56.588 E7.07526
G1 X60.984 Y56.391 E7.08634
G1 X61.127 Y56.03 E7.10777
G1 X61.234 Y55.86 E7.11885
G1 X61.502 Y55.575 E7.14046
G1 X61.661 Y55.46 E7.15131
G1 X61.833 Y55.365 E7.16217
G1 X62.195 Y55.247 E7.18318
G1 X62.478 Y55.216 E7.1989
G1 X76.777 Y55.221 E7.98823
G1 X77.26 Y55.282 E8.01511
G1 X77.713 Y55.398 E8.04092
G1 X78.147 Y55.57 E8.06671
G1 X78.557 Y55.795 E8.09252
G1 X78.935 Y56.07 E8.11832
G1 X79.275 Y56.39 E8.14412
G1 X79.569 Y56.745 E8.16956
G1 X79.824 Y57.145 E8.19576
G1 X80.023 Y57.567 E8.22152
G1 X80.167 Y58.012 E8.24732
G1 X80.255 Y58.471 E8.27312
G1 X80.284 Y58.937 E8.29892
G1 X80.255 Y59.404 E8.32472
G1 X80.167 Y59.863 E8.35052
G1 X80.023 Y60.308 E8.37632
G1 X79.824 Y60.73 E8.40212
G1 X79.577 Y61.12 E8.42757
G1 X79.275 Y61.486 E8.45377
G1 X78.935 Y61.805 E8.47952
G1 X78.557 Y62.08 E8.50532
G1 X78.147 Y62.305 E8.53112
G1 X77.713 Y62.477 E8.55692
G1 X77.26 Y62.593 E8.58272
G1 X76.777 Y62.654 E8.6096
G1 X76.543 Y62.662 E8.62252
G1 X48.224 Y62.666 E10.18587
G1 X47.8 Y62.719 E10.20946
G1 X47.386 Y62.826 E10.23305
G1 X46.988 Y62.983 E10.25664
G1 X46.614 Y63.189 E10.28024
G1 X46.268 Y63.44 E10.30383
G1 X45.957 Y63.733 E10.32743
G1 X45.684 Y64.062 E10.35102
G1 X45.455 Y64.423 E10.37461
G1 X45.273 Y64.81 E10.3982
G1 X45.141 Y65.216 E10.4218
G1 X45.061 Y65.636 E10.44539
G1 X45.034 Y66.062 E10.46899
G1 X45.061 Y66.489 E10.49258
G1 X45.141 Y66.909 E10.51618
G1 X45.273 Y67.315 E10.53977
G1 X45.455 Y67.702 E10.56336
G1 X45.684 Y68.063 E10.58696
G1 X45.956 Y68.392 E10.61055
G1 X46.268 Y68.685 E10.63415
G1 X46.614 Y68.936 E10.65775
G1 X46.988 Y69.142 E10.68134
G1 X47.386 Y69.299 E10.70494
G1 X47.819 Y69.41 E10.72962
G1 X48.379 Y69.463 E10.76066
G1 X60.796 Y69.466 E11.44616
G1 X60.532 Y69.122 F7800
G1 F1800
G1 X60.604 Y67.979 E11.50934
G1 X60.649 Y67.744 E11.52259
G1 X60.723 Y67.515 E11.53584
G1 X60.825 Y67.298 E11.54909
G1 X60.954 Y67.096 E11.56234
G1 X61.107 Y66.911 E11.57558
G1 X61.282 Y66.746 E11.58883
G1 X61.476 Y66.605 E11.60208
G1 X61.686 Y66.49 E11.61533
G1 X61.909 Y66.401 E11.62857
G1 X62.142 Y66.342 E11.64182
G1 X62.38 Y66.312 E11.65507
G1 X62.62 Y66.312 E11.66832
G1 X62.858 Y66.342 E11.68157
G1 X63.091 Y66.401 E11.69481
G1 X63.314 Y66.49 E11.70806
G1 X63.524 Y66.605 E11.72131
G1 X63.718 Y66.746 E11.73456
G1 X63.893 Y66.911 E11.74781
G1 X64.046 Y67.096 E11.76105
G1 X64.175 Y67.298 E11.7743
G1 X64.277 Y67.515 E11.78755
G1 X64.351 Y67.744 E11.8008
G1 X64.396 Y67.979 E11.81405
G1 X64.411 Y68.219 E11.82729
G1 X64.396 Y68.458 E11.84054
G1 X64.352 Y68.691 E11.8536
G1 X64.276 Y68.923 E11.86707
G1 X64.175 Y69.139 E11.88028
G1 X64.046 Y69.342 E11.89353
G1 X63.895 Y69.524 E11.90659
G1 X63.718 Y69.692 E11.92006
G1 X63.524 Y69.832 E11.93327
G1 X63.314 Y69.948 E11.94652
G1 X63.091 Y70.036 E11.95977
G1 X62.866 Y70.094 E11.97255
G1 X62.54 Y70.129 E11.99066
G1 X48.196 Y70.123 E12.78251
G1 X47.675 Y70.058 E12.81149
G1 X47.181 Y69.931 E12.83968
G1 X46.706 Y69.743 E12.86788
G1 X46.258 Y69.497 E12.89608
G1 X45.845 Y69.196 E12.92427
G1 X45.473 Y68.847 E12.95247
G1 X45.147 Y68.453 E12.98067
G1 X44.873 Y68.022 E13.00886
G1 X44.656 Y67.56 E13.03706
G1 X44.498 Y67.074 E13.06525
G1 X44.402 Y66.572 E13.09345
G1 X44.37 Y66.062 E13.12165
G1 X44.402 Y65.553 E13.14984
G1 X44.498 Y65.051 E13.17804
G1 X44.654 Y64.572 E13.20587
G1 X44.874 Y64.103 E13.23447
G1 X45.147 Y63.672 E13.26263
G1 X45.473 Y63.278 E13.29082
G1 X45.845 Y62.929 E13.31902
G1 X46.258 Y62.628 E13.34721
G1 X46.706 Y62.382 E13.37541
G1 X47.181 Y62.194 E13.40361
G1 X47.675 Y62.067 E13.4318
G1 X48.196 Y62.002 E13.46078
G1 X48.452 Y61.994 E13.47489
G1 X76.605 Y61.994 E15.02908
G1 X77.122 Y61.945 E15.05774
G1 X77.507 Y61.846 E15.07972
G1 X77.864 Y61.704 E15.10092
G1 X78.201 Y61.519 E15.12212
G1 X78.512 Y61.294 E15.14332
G1 X78.792 Y61.031 E15.16451
G1 X79.036 Y60.735 E15.18571
G1 X79.242 Y60.411 E15.20691
G1 X79.406 Y60.063 E15.2281
G1 X79.524 Y59.698 E15.2493
G1 X79.596 Y59.321 E15.2705
G1 X79.62 Y58.938 E15.2917
G1 X79.596 Y58.554 E15.3129
G1 X79.524 Y58.177 E15.3341
G1 X79.406 Y57.812 E15.3553
G1 X79.242 Y57.465 E15.37649
G1 X79.036 Y57.14 E15.39769
G1 X78.792 Y56.844 E15.41889
G1 X78.512 Y56.581 E15.4401
G1 X78.201 Y56.356 E15.46129
G1 X77.864 Y56.171 E15.48249
G1 X77.507 Y56.029 E15.50369
G1 X77.122 Y55.93 E15.52568
G1 X76.605 Y55.881 E15.55433
G1 X64.468 Y55.878 E16.22436
G1 X64.396 Y57.021 E16.28754
G1 X64.351 Y57.256 E16.30079
G1 X64.277 Y57.485 E16.31404
G1 X64.175 Y57.702 E16.32729
G1 X64.046 Y57.904 E16.34053
G1 X63.893 Y58.089 E16.35378
G1 X63.718 Y58.254 E16.36703
G1 X63.524 Y58.395 E16.38028
G1 X63.314 Y58.51 E16.39353
G1 X63.091 Y58.599 E16.40677
G1 X62.858 Y58.658 E16.42002
G1 X62.62 Y58.688 E16.43327
G1 X62.38 Y58.688 E16.44652
G1 X62.142 Y58.658 E16.45976
G1 X61.909 Y58.599 E16.47301
G1 X61.686 Y58.51 E16.48626
G1 X61.476 Y58.395 E16.49951
G1 X61.282 Y58.254 E16.51276
G1 X61.107 Y58.089 E16.526
G1 X60.954 Y57.904 E16.53925
G1 X60.825 Y57.702 E16.5525
G1 X60.723 Y57.485 E16.56575
G1 X60.649 Y57.256 E16.579
G1 X60.604 Y57.021 E16.59225
G1 X60.589 Y56.781 E16.60549
G1 X60.604 Y56.545 E16.61855
G1 X60.649 Y56.305 E16.63202
G1 X60.723 Y56.078 E16.64523
G1 X60.824 Y55.864 E16.65829
G1 X60.954 Y55.658 E16.67176
G1 X61.107 Y55.473 E16.68498
G1 X61.282 Y55.309 E16.69822
G1 X61.476 Y55.168 E16.71147
G1 X61.686 Y55.052 E16.72472
G1 X61.909 Y54.964 E16.73797
G1 X62.134 Y54.906 E16.75074
G1 X62.46 Y54.871 E16.76886
G1 X76.804 Y54.877 E17.56071
G1 X77.325 Y54.942 E17.58968
G1 X77.819 Y55.069 E17.61788
G1 X78.294 Y55.257 E17.64608
G1 X78.742 Y55.503 E17.67427
G1 X79.155 Y55.804 E17.70247
G1 X79.527 Y56.153 E17.73067
G1 X79.849 Y56.542 E17.7585
G1 X80.127 Y56.979 E17.78709
G1 X80.344 Y57.44 E17.81525
G1 X80.502 Y57.926 E17.84345
G1 X80.598 Y58.428 E17.87165
G1 X80.63 Y58.938 E17.89984
G1 X80.598 Y59.447 E17.92804
G1 X80.502 Y59.949 E17.95623
G1 X80.344 Y60.435 E17.98443
G1 X80.127 Y60.897 E18.01263
G1 X79.856 Y61.323 E18.04046
G1 X79.527 Y61.722 E18.06905
G1 X79.155 Y62.071 E18.09721
G1 X78.742 Y62.372 E18.12541
G1 X78.294 Y62.618 E18.15361
G1 X77.819 Y62.806 E18.1818
G1 X77.325 Y62.933 E18.21
G1 X76.804 Y62.998 E18.23898
G1 X76.548 Y63.006 E18.25309
G1 X48.245 Y63.011 E19.81554
G1 X47.865 Y63.059 E19.83673
G1 X47.493 Y63.154 E19.85793
G1 X47.136 Y63.296 E19.87913
G1 X46.799 Y63.481 E19.90033
G1 X46.488 Y63.706 E19.92153
G1 X46.208 Y63.969 E19.94272
G1 X45.964 Y64.265 E19.96392
G1 X45.758 Y64.589 E19.98512
G1 X45.594 Y64.937 E20.00632
G1 X45.476 Y65.302 E20.02751
G1 X45.404 Y65.679 E20.04871
G1 X45.38 Y66.062 E20.06991
G1 X45.404 Y66.446 E20.09111
G1 X45.476 Y66.823 E20.11231
G1 X45.594 Y67.188 E20.13351
G1 X45.758 Y67.535 E20.1547
G1 X45.964 Y67.86 E20.1759
G1 X46.208 Y68.156 E20.1971
G1 X46.488 Y68.419 E20.21831
G1 X46.799 Y68.644 E20.23951
G1 X47.136 Y68.829 E20.2607
G1 X47.493 Y68.971 E20.2819
G1 X47.878 Y69.07 E20.30389
G1 X48.395 Y69.119 E20.33254
G1 X60.472 Y69.121 E20.99926
G1 X60.208 Y68.777 F7800
G1 F1800
G1 X60.261 Y67.936 E21.04576
G1 X60.314 Y67.658 E21.0614
G1 X60.402 Y67.388 E21.07704
G1 X60.523 Y67.132 E21.09269
G1 X60.674 Y66.892 E21.10833
G1 X60.855 Y66.674 E21.12397
G1 X61.062 Y66.48 E21.13962
G1 X61.291 Y66.314 E21.15526
G1 X61.539 Y66.177 E21.1709
G1 X61.803 Y66.073 E21.18655
G1 X62.077 Y66.002 E21.20219
G1 X62.358 Y65.967 E21.21783
G1 X62.642 Y65.967 E21.23348
G1 X62.923 Y66.002 E21.24912
G1 X63.197 Y66.073 E21.26477
G1 X63.461 Y66.177 E21.28041
G1 X63.709 Y66.314 E21.29605
G1 X63.938 Y66.48 E21.3117
G1 X64.145 Y66.674 E21.32734
G1 X64.326 Y66.892 E21.34298
G1 X64.477 Y67.132 E21.35863
G1 X64.598 Y67.388 E21.37427
G1 X64.686 Y67.658 E21.38991
G1 X64.739 Y67.936 E21.40556
G1 X64.757 Y68.219 E21.4212
G1 X64.739 Y68.502 E21.43684
G1 X64.686 Y68.776 E21.45228
G1 X64.598 Y69.05 E21.46815
G1 X64.477 Y69.306 E21.48377
G1 X64.326 Y69.545 E21.49942
G1 X64.147 Y69.761 E21.51486
G1 X63.938 Y69.958 E21.53073
G1 X63.709 Y70.124 E21.54635
G1 X63.461 Y70.261 E21.56199
G1 X63.197 Y70.365 E21.57763
G1 X62.928 Y70.434 E21.59299
G1 X62.559 Y70.474 E21.61349
G1 X48.446 Y70.476 E22.39256
G1 X48.169 Y70.468 E22.40786
G1 X47.611 Y70.397 E22.43894
G1 X47.074 Y70.259 E22.46953
G1 X46.559 Y70.055 E22.50012
G1 X46.073 Y69.788 E22.53072
G1 X45.625 Y69.463 E22.56131
G1 X45.221 Y69.083 E22.5919
G1 X44.867 Y68.656 E22.62249
G1 X44.571 Y68.188 E22.65308
G1 X44.335 Y67.687 E22.68368
G1 X44.163 Y67.16 E22.71427
G1 X44.06 Y66.616 E22.74486
G1 X44.025 Y66.062 E22.77545
G1 X44.06 Y65.509 E22.80605
G1 X44.163 Y64.965 E22.83664
G1 X44.332 Y64.445 E22.86685
G1 X44.571 Y63.936 E22.89784
G1 X44.867 Y63.469 E22.92841
G1 X45.221 Y63.042 E22.959
G1 X45.625 Y62.662 E22.98959
G1 X46.073 Y62.337 E23.02019
G1 X46.559 Y62.07 E23.05078
G1 X47.074 Y61.866 E23.08137
G1 X47.611 Y61.728 E23.11196
G1 X48.169 Y61.657 E23.14304
G1 X48.446 Y61.649 E23.15834
G1 X76.589 Y61.649 E24.71193
G1 X77.062 Y61.604 E24.73819
G1 X77.401 Y61.517 E24.75748
G1 X77.717 Y61.392 E24.77628
G1 X78.016 Y61.228 E24.79509
G1 X78.291 Y61.027 E24.81389
G1 X78.54 Y60.794 E24.83269
G1 X78.757 Y60.532 E24.85149
G1 X78.939 Y60.244 E24.87029
G1 X79.084 Y59.936 E24.8891
G1 X79.189 Y59.612 E24.9079
G1 X79.253 Y59.278 E24.9267
G1 X79.275 Y58.938 E24.9455
G1 X79.253 Y58.598 E24.96431
G1 X79.19 Y58.263 E24.98311
G1 X79.084 Y57.939 E25.00191
G1 X78.939 Y57.631 E25.02071
G1 X78.757 Y57.343 E25.03952
G1 X78.54 Y57.081 E25.05832
G1 X78.291 Y56.848 E25.07713
G1 X78.016 Y56.647 E25.09593
G1 X77.717 Y56.483 E25.11474
G1 X77.401 Y56.358 E25.13354
G1 X77.062 Y56.271 E25.15283
G1 X76.589 Y56.226 E25.17908
G1 X64.792 Y56.223 E25.83034
G1 X64.739 Y57.064 E25.87683
G1 X64.686 Y57.342 E25.89248
G1 X64.598 Y57.612 E25.90812
G1 X64.477 Y57.868 E25.92376
G1 X64.326 Y58.108 E25.93941
G1 X64.145 Y58.326 E25.95505
G1 X63.938 Y58.52 E25.9707
G1 X63.709 Y58.686 E25.98634
